images/51003157.svg

<?xml version="1.0" encoding="UTF-8"?>
<svg xmlns="http://www.w3.org/2000/svg" xmlns:xlink="http://www.w3.org/1999/xlink" width="300pt" height="300pt" viewBox="0 0 300 300" version="1.1">
<defs>
<g>
<symbol overflow="visible" id="glyph0-0">
<path style="stroke:none;" d="M 0.640625 2.296875 L 0.640625 -9.171875 L 7.140625 -9.171875 L 7.140625 2.296875 Z M 1.375 1.578125 L 6.421875 1.578125 L 6.421875 -8.4375 L 1.375 -8.4375 Z M 1.375 1.578125 "/>
</symbol>
<symbol overflow="visible" id="glyph0-1">
<path style="stroke:none;" d="M 5.125 -8.609375 C 4.1875 -8.609375 3.441406 -8.257812 2.890625 -7.5625 C 2.347656 -6.875 2.078125 -5.929688 2.078125 -4.734375 C 2.078125 -3.535156 2.347656 -2.585938 2.890625 -1.890625 C 3.441406 -1.203125 4.1875 -0.859375 5.125 -0.859375 C 6.050781 -0.859375 6.785156 -1.203125 7.328125 -1.890625 C 7.878906 -2.585938 8.15625 -3.535156 8.15625 -4.734375 C 8.15625 -5.929688 7.878906 -6.875 7.328125 -7.5625 C 6.785156 -8.257812 6.050781 -8.609375 5.125 -8.609375 Z M 5.125 -9.65625 C 6.445312 -9.65625 7.503906 -9.207031 8.296875 -8.3125 C 9.097656 -7.414062 9.5 -6.222656 9.5 -4.734375 C 9.5 -3.234375 9.097656 -2.035156 8.296875 -1.140625 C 7.503906 -0.253906 6.445312 0.1875 5.125 0.1875 C 3.789062 0.1875 2.722656 -0.253906 1.921875 -1.140625 C 1.128906 -2.035156 0.734375 -3.234375 0.734375 -4.734375 C 0.734375 -6.222656 1.128906 -7.414062 1.921875 -8.3125 C 2.722656 -9.207031 3.789062 -9.65625 5.125 -9.65625 Z M 5.125 -9.65625 "/>
</symbol>
<symbol overflow="visible" id="glyph0-2">
<path style="stroke:none;" d="M 1.28125 -9.484375 L 3 -9.484375 L 7.203125 -1.546875 L 7.203125 -9.484375 L 8.453125 -9.484375 L 8.453125 0 L 6.71875 0 L 2.515625 -7.921875 L 2.515625 0 L 1.28125 0 Z M 1.28125 -9.484375 "/>
</symbol>
<symbol overflow="visible" id="glyph0-3">
<path style="stroke:none;" d="M 1.28125 -9.484375 L 2.5625 -9.484375 L 2.5625 -5.59375 L 7.21875 -5.59375 L 7.21875 -9.484375 L 8.5 -9.484375 L 8.5 0 L 7.21875 0 L 7.21875 -4.515625 L 2.5625 -4.515625 L 2.5625 0 L 1.28125 0 Z M 1.28125 -9.484375 "/>
</symbol>
</g>
</defs>
<g id="surface24153">
<rect x="0" y="0" width="300" height="300" style="fill:rgb(100%,100%,100%);fill-opacity:1;stroke:none;"/>
<path style="fill:none;stroke-width:1.2;stroke-linecap:butt;stroke-linejoin:miter;stroke:rgb(100%,0%,0%);stroke-opacity:1;stroke-miterlimit:10;" d="M 163.660156 213.6875 L 176.296875 203.238281 "/>
<path style="fill:none;stroke-width:1.2;stroke-linecap:butt;stroke-linejoin:miter;stroke:rgb(0%,0%,0%);stroke-opacity:1;stroke-miterlimit:10;" d="M 176.296875 203.238281 L 188.933594 192.785156 "/>
<path style="fill:none;stroke-width:1.2;stroke-linecap:butt;stroke-linejoin:miter;stroke:rgb(100%,0%,0%);stroke-opacity:1;stroke-miterlimit:10;" d="M 163.660156 213.6875 L 148.292969 207.96875 "/>
<path style="fill:none;stroke-width:1.2;stroke-linecap:butt;stroke-linejoin:miter;stroke:rgb(0%,0%,0%);stroke-opacity:1;stroke-miterlimit:10;" d="M 148.292969 207.96875 L 132.925781 202.25 "/>
<path style=" stroke:none;fill-rule:nonzero;fill:rgb(100%,100%,100%);fill-opacity:1;" d="M 158.660156 205.6875 L 169.660156 205.6875 L 169.660156 221.6875 L 158.660156 221.6875 Z M 158.660156 205.6875 "/>
<g style="fill:rgb(100%,0%,0%);fill-opacity:1;">
  <use xlink:href="#glyph0-1" x="158.660156" y="218.063477"/>
</g>
<path style=" stroke:none;fill-rule:nonzero;fill:rgb(0%,0%,0%);fill-opacity:1;" d="M 219.671875 204.222656 L 190.953125 187.363281 L 186.914062 198.210938 Z M 219.671875 204.222656 "/>
<path style="fill:none;stroke-width:1.2;stroke-linecap:butt;stroke-linejoin:miter;stroke:rgb(0%,0%,0%);stroke-opacity:1;stroke-miterlimit:10;" d="M 219.671875 204.222656 L 232.304688 193.773438 "/>
<path style="fill:none;stroke-width:1.2;stroke-linecap:butt;stroke-linejoin:miter;stroke:rgb(0%,0%,100%);stroke-opacity:1;stroke-miterlimit:10;" d="M 232.304688 193.773438 L 244.941406 183.324219 "/>
<path style="fill:none;stroke-width:1.2;stroke-linecap:butt;stroke-linejoin:miter;stroke:rgb(0%,0%,0%);stroke-opacity:1;stroke-miterlimit:10;" d="M 219.671875 204.222656 L 225.132812 236.558594 "/>
<path style="fill:none;stroke-width:1.2;stroke-linecap:butt;stroke-linejoin:miter;stroke:rgb(0%,0%,100%);stroke-opacity:1;stroke-miterlimit:10;" d="M 244.941406 183.324219 L 242.210938 167.152344 "/>
<path style="fill:none;stroke-width:1.2;stroke-linecap:butt;stroke-linejoin:miter;stroke:rgb(0%,0%,0%);stroke-opacity:1;stroke-miterlimit:10;" d="M 242.210938 167.152344 L 239.476562 150.984375 "/>
<path style=" stroke:none;fill-rule:nonzero;fill:rgb(100%,100%,100%);fill-opacity:1;" d="M 234.941406 175.324219 L 254.941406 175.324219 L 254.941406 191.324219 L 234.941406 191.324219 Z M 234.941406 175.324219 "/>
<g style="fill:rgb(0%,0%,100%);fill-opacity:1;">
  <use xlink:href="#glyph0-2" x="234.941406" y="187.700195"/>
  <use xlink:href="#glyph0-3" x="244.911133" y="187.700195"/>
</g>
<path style="fill:none;stroke-width:1.2;stroke-linecap:butt;stroke-linejoin:miter;stroke:rgb(0%,0%,0%);stroke-opacity:1;stroke-miterlimit:10;" d="M 239.476562 150.984375 L 224.109375 145.269531 "/>
<path style="fill:none;stroke-width:1.2;stroke-linecap:butt;stroke-linejoin:miter;stroke:rgb(0%,0%,100%);stroke-opacity:1;stroke-miterlimit:10;" d="M 224.109375 145.269531 L 208.742188 139.550781 "/>
<path style="fill:none;stroke-width:1.2;stroke-linecap:butt;stroke-linejoin:miter;stroke:rgb(0%,0%,0%);stroke-opacity:1;stroke-miterlimit:10;" d="M 239.09375 142.609375 L 226.800781 138.035156 "/>
<path style="fill:none;stroke-width:1.2;stroke-linecap:butt;stroke-linejoin:miter;stroke:rgb(0%,0%,100%);stroke-opacity:1;stroke-miterlimit:10;" d="M 226.800781 138.035156 L 214.503906 133.460938 "/>
<path style="fill:none;stroke-width:1.2;stroke-linecap:butt;stroke-linejoin:miter;stroke:rgb(0%,0%,100%);stroke-opacity:1;stroke-miterlimit:10;" d="M 264.75 130.085938 L 252.113281 140.535156 "/>
<path style="fill:none;stroke-width:1.2;stroke-linecap:butt;stroke-linejoin:miter;stroke:rgb(0%,0%,0%);stroke-opacity:1;stroke-miterlimit:10;" d="M 252.113281 140.535156 L 239.476562 150.984375 "/>
<path style="fill:none;stroke-width:1.2;stroke-linecap:butt;stroke-linejoin:miter;stroke:rgb(0%,0%,100%);stroke-opacity:1;stroke-miterlimit:10;" d="M 208.742188 139.550781 L 206.007812 123.382812 "/>
<path style="fill:none;stroke-width:1.2;stroke-linecap:butt;stroke-linejoin:miter;stroke:rgb(0%,0%,0%);stroke-opacity:1;stroke-miterlimit:10;" d="M 206.007812 123.382812 L 203.277344 107.214844 "/>
<path style=" stroke:none;fill-rule:nonzero;fill:rgb(100%,100%,100%);fill-opacity:1;" d="M 203.742188 131.550781 L 213.742188 131.550781 L 213.742188 147.550781 L 203.742188 147.550781 Z M 203.742188 131.550781 "/>
<g style="fill:rgb(0%,0%,100%);fill-opacity:1;">
  <use xlink:href="#glyph0-2" x="203.742188" y="143.926758"/>
</g>
<path style="fill:none;stroke-width:1.2;stroke-linecap:butt;stroke-linejoin:miter;stroke:rgb(0%,0%,0%);stroke-opacity:1;stroke-miterlimit:10;" d="M 203.277344 107.214844 L 187.910156 101.496094 "/>
<path style="fill:none;stroke-width:1.2;stroke-linecap:butt;stroke-linejoin:miter;stroke:rgb(0%,0%,100%);stroke-opacity:1;stroke-miterlimit:10;" d="M 187.910156 101.496094 L 172.539062 95.777344 "/>
<path style="fill:none;stroke-width:1.2;stroke-linecap:butt;stroke-linejoin:miter;stroke:rgb(0%,0%,0%);stroke-opacity:1;stroke-miterlimit:10;" d="M 203.277344 107.214844 L 228.550781 86.3125 "/>
<path style="fill:none;stroke-width:1.2;stroke-linecap:butt;stroke-linejoin:miter;stroke:rgb(0%,0%,0%);stroke-opacity:1;stroke-miterlimit:10;" d="M 210.722656 111.070312 L 230.941406 94.347656 "/>
<path style="fill:none;stroke-width:1.2;stroke-linecap:butt;stroke-linejoin:miter;stroke:rgb(0%,0%,100%);stroke-opacity:1;stroke-miterlimit:10;" d="M 172.539062 95.777344 L 159.902344 106.226562 "/>
<path style="fill:none;stroke-width:1.2;stroke-linecap:butt;stroke-linejoin:miter;stroke:rgb(0%,0%,0%);stroke-opacity:1;stroke-miterlimit:10;" d="M 159.902344 106.226562 L 147.269531 116.675781 "/>
<path style="fill:none;stroke-width:1.2;stroke-linecap:butt;stroke-linejoin:miter;stroke:rgb(0%,0%,100%);stroke-opacity:1;stroke-miterlimit:10;" d="M 172.539062 95.777344 L 169.808594 79.609375 "/>
<path style="fill:none;stroke-width:1.2;stroke-linecap:butt;stroke-linejoin:miter;stroke:rgb(0%,0%,0%);stroke-opacity:1;stroke-miterlimit:10;" d="M 169.808594 79.609375 L 167.074219 63.441406 "/>
<path style=" stroke:none;fill-rule:nonzero;fill:rgb(100%,100%,100%);fill-opacity:1;" d="M 167.539062 87.777344 L 177.539062 87.777344 L 177.539062 103.777344 L 167.539062 103.777344 Z M 167.539062 87.777344 "/>
<g style="fill:rgb(0%,0%,100%);fill-opacity:1;">
  <use xlink:href="#glyph0-2" x="167.539062" y="100.15332"/>
</g>
<path style="fill:none;stroke-width:1.2;stroke-linecap:butt;stroke-linejoin:miter;stroke:rgb(0%,0%,0%);stroke-opacity:1;stroke-miterlimit:10;" d="M 143.464844 117.320312 L 146.195312 133.488281 "/>
<path style="fill:none;stroke-width:1.2;stroke-linecap:butt;stroke-linejoin:miter;stroke:rgb(100%,0%,0%);stroke-opacity:1;stroke-miterlimit:10;" d="M 146.195312 133.488281 L 148.929688 149.65625 "/>
<path style="fill:none;stroke-width:1.2;stroke-linecap:butt;stroke-linejoin:miter;stroke:rgb(0%,0%,0%);stroke-opacity:1;stroke-miterlimit:10;" d="M 151.070312 116.035156 L 153.804688 132.203125 "/>
<path style="fill:none;stroke-width:1.2;stroke-linecap:butt;stroke-linejoin:miter;stroke:rgb(100%,0%,0%);stroke-opacity:1;stroke-miterlimit:10;" d="M 153.804688 132.203125 L 156.535156 148.371094 "/>
<path style="fill:none;stroke-width:1.2;stroke-linecap:butt;stroke-linejoin:miter;stroke:rgb(0%,0%,0%);stroke-opacity:1;stroke-miterlimit:10;" d="M 147.269531 116.675781 L 131.898438 110.960938 "/>
<path style="fill:none;stroke-width:1.2;stroke-linecap:butt;stroke-linejoin:miter;stroke:rgb(0%,0%,100%);stroke-opacity:1;stroke-miterlimit:10;" d="M 131.898438 110.960938 L 116.53125 105.242188 "/>
<path style=" stroke:none;fill-rule:nonzero;fill:rgb(100%,100%,100%);fill-opacity:1;" d="M 147.730469 141.015625 L 158.730469 141.015625 L 158.730469 157.015625 L 147.730469 157.015625 Z M 147.730469 141.015625 "/>
<g style="fill:rgb(100%,0%,0%);fill-opacity:1;">
  <use xlink:href="#glyph0-1" x="147.730469" y="153.391602"/>
</g>
<path style="fill:none;stroke-width:1.2;stroke-linecap:butt;stroke-linejoin:miter;stroke:rgb(0%,0%,100%);stroke-opacity:1;stroke-miterlimit:10;" d="M 116.53125 105.242188 L 103.894531 115.691406 "/>
<path style="fill:none;stroke-width:1.2;stroke-linecap:butt;stroke-linejoin:miter;stroke:rgb(0%,0%,0%);stroke-opacity:1;stroke-miterlimit:10;" d="M 103.894531 115.691406 L 91.257812 126.140625 "/>
<path style=" stroke:none;fill-rule:nonzero;fill:rgb(100%,100%,100%);fill-opacity:1;" d="M 106.53125 97.242188 L 126.53125 97.242188 L 126.53125 113.242188 L 106.53125 113.242188 Z M 106.53125 97.242188 "/>
<g style="fill:rgb(0%,0%,100%);fill-opacity:1;">
  <use xlink:href="#glyph0-2" x="106.53125" y="109.618164"/>
  <use xlink:href="#glyph0-3" x="116.500977" y="109.618164"/>
</g>
<path style="fill:none;stroke-width:1.2;stroke-linecap:butt;stroke-linejoin:miter;stroke:rgb(0%,0%,0%);stroke-opacity:1;stroke-miterlimit:10;" d="M 91.257812 126.140625 L 60.523438 114.707031 "/>
<path style="fill:none;stroke-width:1.2;stroke-linecap:butt;stroke-linejoin:miter;stroke:rgb(0%,0%,0%);stroke-opacity:1;stroke-miterlimit:10;" d="M 85.496094 132.230469 L 60.90625 123.082031 "/>
<path style="fill:none;stroke-width:1.2;stroke-linecap:butt;stroke-linejoin:miter;stroke:rgb(0%,0%,0%);stroke-opacity:1;stroke-miterlimit:10;" d="M 96.722656 158.480469 L 91.257812 126.140625 "/>
<path style="fill:none;stroke-width:1.2;stroke-linecap:butt;stroke-linejoin:miter;stroke:rgb(0%,0%,0%);stroke-opacity:1;stroke-miterlimit:10;" d="M 60.523438 114.707031 L 35.25 135.605469 "/>
<path style="fill:none;stroke-width:1.2;stroke-linecap:butt;stroke-linejoin:miter;stroke:rgb(0%,0%,0%);stroke-opacity:1;stroke-miterlimit:10;" d="M 35.25 135.605469 L 40.714844 167.945312 "/>
<path style="fill:none;stroke-width:1.2;stroke-linecap:butt;stroke-linejoin:miter;stroke:rgb(0%,0%,0%);stroke-opacity:1;stroke-miterlimit:10;" d="M 43.40625 137.554688 L 47.777344 163.425781 "/>
<path style="fill:none;stroke-width:1.2;stroke-linecap:butt;stroke-linejoin:miter;stroke:rgb(0%,0%,0%);stroke-opacity:1;stroke-miterlimit:10;" d="M 40.714844 167.945312 L 71.449219 179.378906 "/>
<path style="fill:none;stroke-width:1.2;stroke-linecap:butt;stroke-linejoin:miter;stroke:rgb(0%,0%,0%);stroke-opacity:1;stroke-miterlimit:10;" d="M 71.449219 179.378906 L 96.722656 158.480469 "/>
<path style="fill:none;stroke-width:1.2;stroke-linecap:butt;stroke-linejoin:miter;stroke:rgb(0%,0%,0%);stroke-opacity:1;stroke-miterlimit:10;" d="M 69.058594 171.34375 L 89.277344 154.621094 "/>
<path style="fill:none;stroke-width:1.2;stroke-linecap:butt;stroke-linejoin:miter;stroke:rgb(0%,0%,0%);stroke-opacity:1;stroke-miterlimit:10;" d="M 96.722656 158.480469 L 127.460938 169.914062 "/>
<path style="fill:none;stroke-width:1.2;stroke-linecap:butt;stroke-linejoin:miter;stroke:rgb(0%,0%,0%);stroke-opacity:1;stroke-miterlimit:10;" d="M 228.550781 86.3125 L 259.285156 97.75 "/>
<path style="fill:none;stroke-width:1.2;stroke-linecap:butt;stroke-linejoin:miter;stroke:rgb(0%,0%,0%);stroke-opacity:1;stroke-miterlimit:10;" d="M 259.285156 97.75 L 262.019531 113.917969 "/>
<path style="fill:none;stroke-width:1.2;stroke-linecap:butt;stroke-linejoin:miter;stroke:rgb(0%,0%,100%);stroke-opacity:1;stroke-miterlimit:10;" d="M 262.019531 113.917969 L 264.75 130.085938 "/>
<path style="fill:none;stroke-width:1.2;stroke-linecap:butt;stroke-linejoin:miter;stroke:rgb(0%,0%,0%);stroke-opacity:1;stroke-miterlimit:10;" d="M 252.222656 102.269531 L 254.410156 115.203125 "/>
<path style="fill:none;stroke-width:1.2;stroke-linecap:butt;stroke-linejoin:miter;stroke:rgb(0%,0%,100%);stroke-opacity:1;stroke-miterlimit:10;" d="M 254.410156 115.203125 L 256.59375 128.136719 "/>
<path style=" stroke:none;fill-rule:nonzero;fill:rgb(100%,100%,100%);fill-opacity:1;" d="M 259.75 122.085938 L 269.75 122.085938 L 269.75 138.085938 L 259.75 138.085938 Z M 259.75 122.085938 "/>
<g style="fill:rgb(0%,0%,100%);fill-opacity:1;">
  <use xlink:href="#glyph0-2" x="259.75" y="134.461914"/>
</g>
</g>
</svg>

<svg xmlns="http://www.w3.org/2000/svg" xmlns:xlink="http://www.w3.org/1999/xlink" width="300pt" height="300pt" viewBox="0 0 300 300"><defs><symbol overflow="visible"><path d="M.64 2.297v-11.47h6.5v11.47zm.735-.72h5.047V-8.436H1.375zm0 0"/></symbol><symbol overflow="visible" id="a"><path d="M5.125-8.61c-.938 0-1.684.352-2.234 1.047-.542.688-.812 1.633-.812 2.83 0 1.198.27 2.147.813 2.842.55.687 1.297 1.03 2.235 1.03.926 0 1.66-.343 2.203-1.03.55-.696.828-1.645.828-2.844 0-1.196-.277-2.14-.828-2.829-.543-.695-1.277-1.046-2.203-1.046zm0-1.046c1.32 0 2.38.45 3.172 1.344.8.898 1.203 2.09 1.203 3.578 0 1.5-.402 2.7-1.203 3.593C7.504-.255 6.445.186 5.125.186c-1.336 0-2.402-.44-3.203-1.328C1.13-2.036.734-3.235.734-4.735c0-1.49.395-2.68 1.188-3.579.8-.894 1.867-1.343 3.203-1.343zm0 0"/></symbol><symbol overflow="visible" id="b"><path d="M1.28-9.484H3l4.203 7.937v-7.937h1.25V0H6.72L2.515-7.922V0H1.28zm0 0"/></symbol><symbol overflow="visible" id="c"><path d="M1.28-9.484h1.282v3.89H7.22v-3.89H8.5V0H7.22v-4.516H2.562V0H1.28zm0 0"/></symbol></defs><g><path fill="#fff" d="M0 0h300v300H0z"/><path d="M163.66 213.688l12.637-10.45" stroke-width="1.2" stroke="#f00" stroke-miterlimit="10" fill="none"/><path d="M176.297 203.238l12.637-10.453" stroke-width="1.2" stroke="#000" stroke-miterlimit="10" fill="none"/><path d="M163.66 213.688l-15.367-5.72" stroke-width="1.2" stroke="#f00" stroke-miterlimit="10" fill="none"/><path d="M148.293 207.97l-15.367-5.72" stroke-width="1.2" stroke="#000" stroke-miterlimit="10" fill="none"/><path d="M158.66 205.688h11v16h-11zm0 0" fill="#fff"/><use xlink:href="#a" x="158.66" y="218.063" fill="#f00"/><path d="M219.672 204.223l-28.72-16.86-4.038 10.848zm0 0"/><path d="M219.672 204.223l12.633-10.45" stroke-width="1.2" stroke="#000" stroke-miterlimit="10" fill="none"/><path d="M232.305 193.773l12.636-10.45" stroke-width="1.2" stroke="#00f" stroke-miterlimit="10" fill="none"/><path d="M219.672 204.223l5.46 32.336" stroke-width="1.2" stroke="#000" stroke-miterlimit="10" fill="none"/><path d="M244.94 183.324l-2.73-16.172" stroke-width="1.2" stroke="#00f" stroke-miterlimit="10" fill="none"/><path d="M242.21 167.152l-2.733-16.168" stroke-width="1.2" stroke="#000" stroke-miterlimit="10" fill="none"/><path d="M234.94 175.324h20v16h-20zm0 0" fill="#fff"/><g fill="#00f"><use xlink:href="#b" x="234.941" y="187.7"/><use xlink:href="#c" x="244.911" y="187.7"/></g><path d="M239.477 150.984l-15.368-5.714" stroke-width="1.2" stroke="#000" stroke-miterlimit="10" fill="none"/><path d="M224.11 145.27l-15.368-5.72" stroke-width="1.2" stroke="#00f" stroke-miterlimit="10" fill="none"/><path d="M239.094 142.61l-12.293-4.575" stroke-width="1.2" stroke="#000" stroke-miterlimit="10" fill="none"/><path d="M226.8 138.035l-12.296-4.574M264.75 130.086l-12.637 10.45" stroke-width="1.2" stroke="#00f" stroke-miterlimit="10" fill="none"/><path d="M252.113 140.535l-12.636 10.45" stroke-width="1.2" stroke="#000" stroke-miterlimit="10" fill="none"/><path d="M208.742 139.55l-2.734-16.167" stroke-width="1.2" stroke="#00f" stroke-miterlimit="10" fill="none"/><path d="M206.008 123.383l-2.73-16.168" stroke-width="1.2" stroke="#000" stroke-miterlimit="10" fill="none"/><path d="M203.742 131.55h10v16h-10zm0 0" fill="#fff"/><use xlink:href="#b" x="203.742" y="143.927" fill="#00f"/><path d="M203.277 107.215l-15.367-5.72" stroke-width="1.2" stroke="#000" stroke-miterlimit="10" fill="none"/><path d="M187.91 101.496l-15.37-5.72" stroke-width="1.2" stroke="#00f" stroke-miterlimit="10" fill="none"/><path d="M203.277 107.215l25.274-20.903M210.723 111.07l20.218-16.722" stroke-width="1.2" stroke="#000" stroke-miterlimit="10" fill="none"/><path d="M172.54 95.777l-12.638 10.45" stroke-width="1.2" stroke="#00f" stroke-miterlimit="10" fill="none"/><path d="M159.902 106.227l-12.632 10.45" stroke-width="1.2" stroke="#000" stroke-miterlimit="10" fill="none"/><path d="M172.54 95.777l-2.73-16.168" stroke-width="1.2" stroke="#00f" stroke-miterlimit="10" fill="none"/><path d="M169.81 79.61l-2.736-16.17" stroke-width="1.2" stroke="#000" stroke-miterlimit="10" fill="none"/><path d="M167.54 87.777h10v16h-10zm0 0" fill="#fff"/><use xlink:href="#b" x="167.539" y="100.153" fill="#00f"/><path d="M143.465 117.32l2.73 16.168" stroke-width="1.2" stroke="#000" stroke-miterlimit="10" fill="none"/><path d="M146.195 133.488l2.735 16.168" stroke-width="1.2" stroke="#f00" stroke-miterlimit="10" fill="none"/><path d="M151.07 116.035l2.735 16.168" stroke-width="1.2" stroke="#000" stroke-miterlimit="10" fill="none"/><path d="M153.805 132.203l2.73 16.168" stroke-width="1.2" stroke="#f00" stroke-miterlimit="10" fill="none"/><path d="M147.27 116.676l-15.372-5.715" stroke-width="1.2" stroke="#000" stroke-miterlimit="10" fill="none"/><path d="M131.898 110.96l-15.367-5.718" stroke-width="1.2" stroke="#00f" stroke-miterlimit="10" fill="none"/><path d="M147.73 141.016h11v16h-11zm0 0" fill="#fff"/><use xlink:href="#a" x="147.73" y="153.392" fill="#f00"/><path d="M116.53 105.242l-12.635 10.45" stroke-width="1.2" stroke="#00f" stroke-miterlimit="10" fill="none"/><path d="M103.895 115.69l-12.637 10.45" stroke-width="1.2" stroke="#000" stroke-miterlimit="10" fill="none"/><path d="M106.53 97.242h20v16h-20zm0 0" fill="#fff"/><g fill="#00f"><use xlink:href="#b" x="106.531" y="109.618"/><use xlink:href="#c" x="116.501" y="109.618"/></g><path d="M91.258 126.14l-30.735-11.433M85.496 132.23l-24.59-9.148M96.723 158.48l-5.465-32.34M60.523 114.707L35.25 135.605M35.25 135.605l5.465 32.34M43.406 137.555l4.37 25.87M40.715 167.945L71.45 179.38M71.45 179.38l25.273-20.9M69.06 171.344l20.217-16.723M96.723 158.48l30.738 11.434M228.55 86.313l30.735 11.437M259.285 97.75l2.735 16.168" stroke-width="1.2" stroke="#000" stroke-miterlimit="10" fill="none"/><path d="M262.02 113.918l2.73 16.168" stroke-width="1.2" stroke="#00f" stroke-miterlimit="10" fill="none"/><path d="M252.223 102.27l2.187 12.933" stroke-width="1.2" stroke="#000" stroke-miterlimit="10" fill="none"/><path d="M254.41 115.203l2.184 12.934" stroke-width="1.2" stroke="#00f" stroke-miterlimit="10" fill="none"/><path d="M259.75 122.086h10v16h-10zm0 0" fill="#fff"/><use xlink:href="#b" x="259.75" y="134.462" fill="#00f"/></g></svg>
